X: 12
T: The Congress
R: reel
M: 4/4
L: 1/8
K: Ador
|:eAAG A2Bd|eaaf gedg|e~A3 e~A3|B~G3 Bddg|
e~A3 A2Bd|eaaf gedB|cBcd eged|cABG A2(3Bcd:|
|:eaag ~a3g|eaag egdg|egdg egdg|eaaf gedg|
e~a3 a2ag|eaaf gedB|cBcd eged|cABG A2(3Bcd:|


Tune 208	Setting 12876

